X:1
T:Title
%%score { 1 | ( 2 3 ) }
L:1/8
Q:1/4=124
M:3/4
K:F
V:1 treble nm="Grand Piano"
V:2 bass 
V:3 bass 
V:1
 F3 F F2 | F2 C2 F2 | A2 F2 A2 | c6 | [Ec]2 [EG]2 [FA]2 | [GB]3 [FA] [EG]2 | [DF]2 [CE]2 [=B,D]2 | %7
w: Wm.~J.~Kirkpatrick * *|||||||
 C6 | F3 F F2 | F2 C2 F2 | A2 F2 A2 | c6 | [Ec]2 [EG]2 [FA]2 | [GB]3 [FA] [EG]2 | [DF]2 [DG]2 E2 | %15
w: ||||||||
 F6 | A3 A A2 | A2 A2 E2 | F4 D2 | [A,^CE]4 z2 | c2 c2 c2 | c3 G G2 | d4 =B2 | [Ec]4 z2 | %24
w: |||||||||
 [Ac]4 [FBd]2 | [CAc]3 [CGB] [CFA]2 | [CGB]4 [CAc]2 | [EGB]3 [FA] [EG]2 | A2 A2 d2 | c3 A F2 | %30
w: ||||||
 F2 G2 E2 | F4 z2 |] %32
w: ||
V:2
 [F,A,C]3 [F,A,C] [F,A,C]2 | [F,A,C]2 [F,A,]2 [F,A,C]2 | [F,CF]2 [F,A,C]2 [F,CF]2 | [F,A,F]6 | %4
 [C,G,]2 [C,C]2 [C,C]2 | [C,C]3 [C,C] [C,B,]2 | [D,A,]2 [G,,G,]2 [F,,F,]2 | [C,E,]6 | %8
 [F,A,C]3 [F,A,C] [F,A,C]2 | [F,A,C]2 [F,A,]2 [F,A,C]2 | [F,CF]2 [F,A,C]2 [F,CF]2 | [F,A,F]6 | %12
 [C,G,]2 [C,C]2 [C,C]2 | [C,C]3 [C,C] [C,B,]2 | [D,A,]2 [B,,B,]2 [C,G,C]2 | [F,A,C]6 | A,3 A, A,2 | %17
 A,2 A,2 E,2 | F,4 D,2 | A,,4 z2 | C2 C2 C2 | C3 G, G,2 | [G,=B,F]4 [G,F]2 | [C,G,]4 z2 | %24
 A,2 z2 z2 | F,3 F, F,2 | C,4 C,2 | C,3 [C,C] [C,C]2 | [F,CF]2 [F,CF]2 [F,B,F]2 | %29
 [F,A,F]3 [F,CF] [F,A,C]2 | D4 z2 | [F,A,C]4 z2 |] %32
V:3
 x6 | x6 | x6 | x6 | x6 | x6 | x6 | x6 | x6 | x6 | x6 | x6 | x6 | x6 | x6 | x6 | x6 | x6 | x6 | %19
 x6 | x6 | x6 | x6 | x6 | F,2- [F,C]2 F,2 | x6 | x6 | x6 | x6 | x6 | [D,A,]2 [B,,B,]2 [C,G,C]2 | %31
 x6 |] %32

